!!!!SEGMENT: pl-kk--kk-i-40--006-001_lasso-orlando-di--missa-ad-placitum-kyrie.krn
!!!cenid: 16xx:1297
!!!COM: Lasso, Orlando di
!!!COM-rismid: pe506
!!!CDT: ~1532-1594/06/14
!!!CNT: French-Flemish
!!!OPR: Missa ad Placitum
!!!OTL: Kyrie
!!!OMV: 001
!!!PDT:
!!!AGN: Sacred; Mass
!!!SMS-siglum: PL-Kk
!!!SMS-shelfmark: Kk.I.40
!!!SMS-shelfwork: 006-001 M
!!!SMS-variant:
!!!SMS-altvar:
!!!NIFC-rismid: 1001154492
!!!URL-scan: http://repozytorium.nifc.pl/skany/pl-kk-nut--i-40
!!!ONB-nifc: UWAGA: części Mszy: 1. Kyrie, 2. Et in terra, 3. Sanctus, 4. Agnus Dei. Skan 0009-0010
**kern	**text
*Iempty	*
*I"Baſso Ripieno.	*
*clefF3	*
*k[b-]	*
*g:	*
*M2/1	*
*met(c|)	*
=1-	=1-
!LO:TX:a:t=P:problem:w źródle znaki przykluczowe B- i BB-, zapisane jeden nad drugim	!
00rA	.
=2-	=2-
.	.
=3-	=3-
1G	Ky-
2E/	-ri-
*2\right	*
!LO:TX:t=P:problem:kreska pseudotaktowa	!
2G\	-e
=4-	=4-
2F/	e-
2E/	-lei-
2D,</	-son
2.G\	Ky-
=5-	=5-
4G\	-ri-
!LO:TX:t=P:problem:kreska pseudotaktowa	!
2G\	-e
2C/	e-
2D/	-lei-
=6-	=6-
!LO:TX:t=P:problem:podwójna kreska pseudotaktowa	!
0G;>	-son
=7||-	=7||-
*M2/1	*
*met(c|)	*
1G	Chri-
2B-\	-ste
2B-\	e-
=8-	=8-
4F\	-lei-
4G\	.
4A\	.
4B-\	.
2c\	.
!LO:TX:t=P:problem:kreska pseudotaktowa	!
2G\	-son
!LO:LB:g=original	!
=9-	=9-
00rA	.
=10-	=10-
.	.
=11-	=11-
2r	.
1F	X-
!LO:TX:t=P:problem:kreska pseudotaktowa	!
2C/	-te
=12-	=12-
2.E/	e-
4F/	.
2G\	-lei-
2G\	-son
=13-	=13-
!LO:TX:t=P:problem:kreska pseudotaktowa	!
1D	.
2r	.
1G\	Chri-
=14-	=14-
2D/	-ste
2.F\	.
4G\	.
=15-	=15-
2A\	e-
2B-\	.
1A	-lei-
=16-	=16-
!LO:TX:t=P:problem:podwójna kreska pseudotaktowa	!
0D;>	-son
=17||-	=17||-
*M2/1	*
*met(c|)	*
0r	.
=18-	=18-
!LO:TX:t=P:problem:kreska pseudotaktowa	!
1r	.
2D/	Ky-
2G\	-ri-
=19-	=19-
2F\	-e
!LO:TX:t=P:problem:kreska pseudotaktowa	!
2F\	e-
4G\	-lei-
4A\	.
4B-\	.
!LO:TX:t=P:problem:kreska pseudotaktowa	!
4G\	.
=20-	=20-
2A\	.
!LO:TX:t=P:problem:kreska pseudotaktowa	!
2B-\	-son
2BB-/	Ky-
2BB-/	-ri-
=21-	=21-
2F\	-e
2G\	e-
1D	-lei-
=22-	=22-
!LO:TX:t=P:problem:końowa kreska pseudotaktowa	!
0G;>	-son.
==	==
*-	*-
!!!RDF**kern: > = above
!!!RDF**kern: < = below
!!!EED: Antoni Szymański
!!!EST: 2021-07-31
!!!ENC: Berenika Jozajtis
!!!END: 2021-07-04
